X:4433
T:Drummers, The
S:Charlie Menzies
R:Reel
O:Scotland
M:4/4
K:ADor
E|\
ABcA E2EF|GABc dBGB|ABcA E2Ef|edcB A2A::B|\
c2ce d2de|c2ce dBGB|
c2ce d2df|edcB A2AB|\
ccce ddde|ccce dBGB|ccce dddf|edcB A2A:|
